T: Monk's, The
M: 6/8
L: 1/8
K: Ador
A^GA cBc | d^cd e^de | A^GA cde | dcA AGE |A2 A c2 c | d^cd e2 e | aba ged | cA^G A2 :|e2 a aba | gef ged | e2 a aba | gef g2 a |eaa a^ga | gef ge/f/g | aba ged | cA^G A2 :|
